assets/Japanese no vacancy button/Flat/japanese_no_vacancy_button_flat.svg

<svg width="32" height="32" viewBox="0 0 32 32" fill="none" xmlns="http://www.w3.org/2000/svg">
<path d="M2 6C2 3.79086 3.79086 2 6 2H26C28.2091 2 30 3.79086 30 6V26C30 28.2091 28.2091 30 26 30H6C3.79086 30 2 28.2091 2 26V6Z" fill="#F92F60"/>
<path d="M8.44116 5.12065C8.05064 4.73013 7.41747 4.73013 7.02695 5.12065C6.63643 5.51118 6.63643 6.14434 7.02695 6.53487L8.44116 7.94908C8.83169 8.3396 9.46485 8.3396 9.85538 7.94908C10.2459 7.55855 10.2459 6.92539 9.85538 6.53487L8.44116 5.12065Z" fill="white"/>
<path d="M16 5.99997C15.49 5.99997 15.0692 6.38181 15.0078 6.87522C14.9992 6.94373 14.9441 6.99997 14.875 6.99997H13C12.4478 6.99997 12 7.44769 12 7.99997C12 8.55226 12.4478 8.99997 13 8.99997H14.875C14.9441 8.99997 15 9.05594 15 9.12497V9.87497C15 9.94401 14.9441 9.99997 14.875 9.99997H12C11.4478 9.99997 11 10.4477 11 11C11 11.5523 11.4478 12 12 12H17.875C17.9441 12 18 12.0559 18 12.125V12.875C18 12.944 17.9441 13 17.875 13H12C11.4478 13 11 13.4477 11 14V26C11 26.5523 11.4478 27 12 27C12.5523 27 13 26.5523 13 26V15.125C13 15.0559 13.056 15 13.125 15H17.875C17.9441 15 18 15.0559 18 15.125V21.875C18 21.944 17.9441 22 17.875 22H17.125C17.056 22 17 21.944 17 21.875V20C17 19.4477 16.5523 19 16 19C15.4478 19 15 19.4477 15 20V24C15 24.5523 15.4478 25 16 25C16.5101 25 16.9309 24.6181 16.9923 24.1247C17.0009 24.0562 17.056 24 17.125 24H22C22.5523 24 23 23.5523 23 23V20C23 19.4477 22.5523 19 22 19C21.4478 19 21 19.4477 21 20V21.875C21 21.944 20.9441 22 20.875 22H20.125C20.056 22 20 21.944 20 21.875V15.125C20 15.0559 20.056 15 20.125 15H24.875C24.9441 15 25 15.0559 25 15.125V24.875C25 24.944 24.9441 25 24.875 25H23C22.4478 25 22 25.4477 22 26C22 26.5523 22.4478 27 23 27H26C26.5523 27 27 26.5523 27 26V14C27 13.4477 26.5523 13 26 13H20.125C20.056 13 20 12.944 20 12.875V12.125C20 12.0559 20.056 12 20.125 12H26C26.5523 12 27 11.5523 27 11C27 10.4477 26.5523 9.99997 26 9.99997H23.125C23.056 9.99997 23 9.94401 23 9.87497V9.12497C23 9.05594 23.056 8.99997 23.125 8.99997H25C25.5523 8.99997 26 8.55226 26 7.99997C26 7.44769 25.5523 6.99997 25 6.99997H23.125C23.056 6.99997 23.0009 6.94373 22.9923 6.87522C22.9309 6.38181 22.5101 5.99997 22 5.99997C21.49 5.99997 21.0692 6.38181 21.0078 6.87522C20.9992 6.94373 20.9441 6.99997 20.875 6.99997H17.125C17.056 6.99997 17.0009 6.94373 16.9923 6.87522C16.9309 6.38181 16.5101 5.99997 16 5.99997ZM20.875 8.99997C20.9441 8.99997 21 9.05594 21 9.12497V9.87497C21 9.94401 20.9441 9.99997 20.875 9.99997H17.125C17.056 9.99997 17 9.94401 17 9.87497V9.12497C17 9.05594 17.056 8.99997 17.125 8.99997H20.875Z" fill="white"/>
<path d="M4.72101 24.5973C4.4876 25.0979 4.70416 25.6928 5.2047 25.9263C5.70524 26.1597 6.30022 25.9431 6.53362 25.4426L9.49195 19.0984C9.72535 18.5979 9.5088 18.0029 9.00826 17.7695C8.50772 17.5361 7.91274 17.7526 7.67933 18.2532L4.72101 24.5973Z" fill="white"/>
<path d="M6.31992 10.0761C6.71044 9.68557 7.34361 9.68557 7.73413 10.0761L9.14835 11.4903C9.53887 11.8808 9.53887 12.514 9.14835 12.9045C8.75782 13.295 8.12466 13.295 7.73413 12.9045L6.31992 11.4903C5.92939 11.0998 5.92939 10.4666 6.31992 10.0761Z" fill="white"/>
</svg>

<svg xmlns="http://www.w3.org/2000/svg" width="32" height="32" fill="none"><path fill="#F92F60" d="M2 6a4 4 0 0 1 4-4h20a4 4 0 0 1 4 4v20a4 4 0 0 1-4 4H6a4 4 0 0 1-4-4V6Z"/><path fill="#fff" d="M8.441 5.12a1 1 0 0 0-1.414 1.415l1.414 1.414a1 1 0 0 0 1.414-1.414L8.441 5.12ZM16 6a1 1 0 0 0-.992.875c-.009.069-.064.125-.133.125H13a1 1 0 0 0 0 2h1.875c.07 0 .125.056.125.125v.75a.125.125 0 0 1-.125.125H12a1 1 0 0 0 0 2h5.875c.07 0 .125.056.125.125v.75a.125.125 0 0 1-.125.125H12a1 1 0 0 0-1 1v12a1 1 0 0 0 2 0V15.125c0-.07.056-.125.125-.125h4.75c.07 0 .125.056.125.125v6.75a.125.125 0 0 1-.125.125h-.75a.125.125 0 0 1-.125-.125V20a1 1 0 1 0-2 0v4a1 1 0 0 0 1.992.125c.009-.069.064-.125.133-.125H22a1 1 0 0 0 1-1v-3a1 1 0 1 0-2 0v1.875a.125.125 0 0 1-.125.125h-.75a.125.125 0 0 1-.125-.125v-6.75c0-.07.056-.125.125-.125h4.75c.07 0 .125.056.125.125v9.75a.125.125 0 0 1-.125.125H23a1 1 0 0 0 0 2h3a1 1 0 0 0 1-1V14a1 1 0 0 0-1-1h-5.875a.125.125 0 0 1-.125-.125v-.75c0-.07.056-.125.125-.125H26a1 1 0 1 0 0-2h-2.875A.125.125 0 0 1 23 9.875v-.75c0-.07.056-.125.125-.125H25a1 1 0 1 0 0-2h-1.875c-.069 0-.124-.056-.133-.125a1 1 0 0 0-1.984 0c-.009.069-.064.125-.133.125h-3.75c-.069 0-.124-.056-.133-.125A1 1 0 0 0 16 6Zm4.875 3c.07 0 .125.056.125.125v.75a.125.125 0 0 1-.125.125h-3.75A.125.125 0 0 1 17 9.875v-.75c0-.07.056-.125.125-.125h3.75ZM4.721 24.597a1 1 0 0 0 1.813.846l2.958-6.345a1 1 0 1 0-1.813-.845l-2.958 6.344ZM6.32 10.076a1 1 0 0 1 1.414 0l1.414 1.414a1 1 0 1 1-1.414 1.415L6.32 11.49a1 1 0 0 1 0-1.414Z"/></svg>
